X:1
T:Title
L:1/8
Q:1/4=140
M:12/8
K:D
V:1 treble nm="Grand Piano"
V:1
 z3 A2 A A2 A G2 F | G12 | z3 =F2 F F2 E- EDC | D6 A,6- | A,3 A2 A A2 A =F2 A | G12 | %6
 z3 =F2 F F2 F F2 A | E12 | z3 ^A2 A A2 A =A2 ^G | A12 | z3 ^A2 A A2 A =A2 ^G | A3 ^GAG =G6- | %12
 G3 G2 F G2 ^A =A2 A | d3 A3 =F3 D3- | D3 G2 F G2 ^A =A2 A | D3 E3/2=F3/2- F3/2G3/2 A3- | %16
 A3 G2 F G2 ^A =A2 A | D12 |] %18

